X: 164
T: A Spotted Horse
C: Teton Sioux band 1911-1914
N: Derived from sioux159.krn
O: South Dakota, U.S.A.
N: Teton Sioux Music by Frances Densmore, 1918
Z: transcribed to **kern format by Craig Sapp
L: 1/8
M: 3/4
Q: 1/4=58
K: F clef=bass
%%linebreak <none>
F2F2G/ F3/ [I:setbarnb 1]||  
[M:2/4]C< C (3C A, A, ||  
[M:3/4]F2F2G/ F3/ ||  
[M:2/4]C< C C/ A,3/ ||  
[M:3/4]C2C3F/ D/ ||  
[M:2/4]C< C (3C A, A, | 
C C (3C A, A, ||  
[M:3/4]A, A, G, G, G, F, | 
A,2A,2A, A, ||  
[M:2/4]G, G, F,3/ F,/ | 
F,3F, ||  
[M:3/4]F,6 ||  
[M:2/4]A, C C C ||  
[M:3/4]C F C C (3(C A,) A, | 
C C (C/ A,/) A, A, A, ||  
[M:2/4]G, G, (G,/ F,/) F, | 
A,2A,2 | 
z A, G, G, ||  
[M:3/4]F, F,F,4 | 
F,2z4 |]  



